X:1
T:Guns of the Magnificent Seven, The
T:Fintan McManus's
C:Fintan McManus
R:reel
D:Altan: Island Angel
Z:id:hn-reel-274
M:C|
K:Ador
|:EAAG ABcA|EAFA GEDG|EAAG ABcd|egdB BAAG:|
|:ABcd eA~A2|gedc BG~G2|ABcd eaaf|1 gedB BAAG:|2 gedB BA~A2||
|:egdB A2eg|[M:3/4]dB GA (3Bcd|[M:C|]egdB a2ag|1 (3efg dB BA~A2:|2 (3efg dB BAAG||
</abc>
<abc>
